packages/icons/svg/Fill/slash.svg

<svg fill="none" height="24" viewBox="0 0 24 24" width="24" xmlns="http://www.w3.org/2000/svg"><path clip-rule="evenodd" d="m4.00005 12.0002c0-1.846.635-3.54204 1.688-4.89704l11.20905 11.20904c-1.3551 1.054-3.0511 1.688-4.8971 1.688-4.41095 0-7.99995-3.589-7.99995-8zm15.99995-.0001c0 1.846-.635 3.542-1.688 4.897l-11.20899-11.20903c1.355-1.054 3.05099-1.688 4.89699-1.688 4.411 0 8 3.589 8 8.00003zm-8-10.0001c-5.51397 0-9.99997 4.486-9.99997 10s4.486 10 9.99997 10c5.514 0 10-4.486 10-10s-4.486-10-10-10z" fill="#6b7280" fill-rule="evenodd"/></svg>

<svg width="24" height="24" viewBox="0 0 24 24" fill="none" xmlns="http://www.w3.org/2000/svg">
<g id="Icon/Fill/slash">
<path id="Mask" fill-rule="evenodd" clip-rule="evenodd" d="M4 12C4 10.154 4.635 8.458 5.688 7.103L16.897 18.312C15.542 19.366 13.846 20 12 20C7.589 20 4 16.411 4 12ZM20 12C20 13.846 19.365 15.542 18.312 16.897L7.103 5.688C8.458 4.634 10.154 4 12 4C16.411 4 20 7.589 20 12ZM12 2C6.486 2 2 6.486 2 12C2 17.514 6.486 22 12 22C17.514 22 22 17.514 22 12C22 6.486 17.514 2 12 2Z" fill="#000000"/>
</g>
</svg>
